source/img/icon-sprite.svg

<svg xmlns="http://www.w3.org/2000/svg" xmlns:xlink="http://www.w3.org/1999/xlink"><symbol viewBox="0 0 64 75" id="icon-gift"><path d="M61.1556 22.1167H61.054H36.3683C50.1841 15.3189 51.3016 11.0202 50.7937 8.62098C49.6762 4.72221 45.1048 1.72316 40.8381 3.32266C35.2508 5.42199 33.727 13.6194 32.2032 19.5175C30.273 13.5194 28.4444 5.92183 24.0762 2.02307C22.8571 0.923414 21.0286 -0.176239 18.2857 0.0236982C14.2222 0.423572 8.43175 5.32202 10.8698 10.8203C13.1048 16.1186 20.5206 19.5175 25.4984 22.2167H2.84444C1.21905 22.2167 0 23.5163 0 25.0158V36.2123C0 37.8118 1.32063 39.0114 2.84444 39.0114H3.14921V75H61.054V39.0114H61.1556C62.781 39.0114 64 37.7118 64 36.2123V25.0158C64 23.4163 62.6794 22.1167 61.1556 22.1167ZM42.4635 5.82187C44.5968 5.52196 47.4413 7.12146 47.746 9.02085C48.1524 11.72 44.3937 14.2192 42.6667 15.3189C40.127 17.0183 37.6889 17.918 35.3524 19.3176C36.1651 15.6188 37.8921 6.42168 42.4635 5.82187ZM19.5048 15.6188C17.2698 14.1192 13.0032 11.2202 13.1048 7.9212C13.2063 4.32234 18.8952 1.42326 21.9429 4.1224C25.8032 7.42136 27.6317 15.1189 29.054 20.5172C25.8032 18.9177 22.7556 17.7181 19.5048 15.6188ZM25.4984 72.0009H6.09524V39.0114H25.4984V72.0009ZM25.4984 36.0123H3.04762V25.1158H25.4984V36.0123ZM35.6571 72.0009H28.4444V25.1158H35.6571V72.0009ZM58.0064 72.0009H38.7048V39.0114H58.1079V72.0009H58.0064ZM60.9524 36.0123H38.7048V25.1158H60.9524V36.0123Z" fill="#81B3D2"/></symbol><symbol viewBox="0 0 76 68" id="icon-burger"><path d="M71.7113 45.3324H4.28871C1.89501 45.3324 0 47.3034 0 49.57V53.0192C0 55.2858 1.89501 57.1582 4.28871 57.1582H5.28609V58.1437C5.28609 63.5639 9.77428 67.9 15.1601 67.9H60.8399C66.3255 67.9 70.7139 63.4653 70.7139 58.1437V57.1582H71.7113C74.0053 57.1582 76 55.2858 76 52.9206V49.4714C76 47.3034 74.105 45.3324 71.7113 45.3324ZM67.8215 58.1437C67.8215 61.8886 64.7297 64.9436 60.9396 64.9436H15.0604C11.2703 64.9436 8.17848 61.8886 8.17848 58.1437V57.1582H67.8215V58.1437ZM73.0079 52.9206C73.0079 53.6105 72.4095 54.2018 71.7113 54.2018H4.28871C3.59055 54.2018 2.99213 53.6105 2.99213 52.9206V49.4714C2.99213 48.8801 3.59055 48.2889 4.28871 48.2889H71.811C72.5092 48.2889 73.1076 48.8801 73.1076 49.57V52.9206H73.0079Z" fill="#81B3D2"/><path d="M16.1575 37.3496L21.5434 41.2915L27.0289 37.3496L32.5145 41.2915L38 37.3496L43.3859 41.2915L48.8714 37.3496L54.357 41.2915L59.8426 37.3496L65.3281 41.2915L71.6116 36.6597L69.9161 34.2946L65.3281 37.5467L59.8426 33.6047L54.357 37.5467L48.8714 33.6047L43.3859 37.5467L38 33.6047L32.5145 37.5467L27.0289 33.6047L21.5434 37.5467L16.1575 33.6047L10.672 37.5467L6.08403 34.2946L4.28876 36.6597L10.672 41.2915L16.1575 37.3496Z" fill="#81B3D2"/><path d="M70.7138 30.6486C70.7138 30.0573 70.8136 28.0864 70.7138 27.6922C70.0157 12.3186 55.6535 0 37.9999 0C20.3464 0 5.88444 12.3186 5.18628 27.6922C5.18628 28.0864 5.18628 30.0573 5.18628 30.6486H70.7138ZM37.9999 2.95646C53.9579 2.95646 67.1233 13.9939 67.7217 27.6922H8.17841C8.87657 13.9939 22.0419 2.95646 37.9999 2.95646Z" fill="#81B3D2"/><path d="M38 16.7532C39.1017 16.7532 39.9948 15.8708 39.9948 14.7823C39.9948 13.6937 39.1017 12.8113 38 12.8113C36.8983 12.8113 36.0052 13.6937 36.0052 14.7823C36.0052 15.8708 36.8983 16.7532 38 16.7532Z" fill="#81B3D2"/><path d="M30.021 11.924C31.1227 11.924 32.0157 11.0416 32.0157 9.95303C32.0157 8.86449 31.1227 7.98206 30.021 7.98206C28.9193 7.98206 28.0262 8.86449 28.0262 9.95303C28.0262 11.0416 28.9193 11.924 30.021 11.924Z" fill="#81B3D2"/><path d="M45.979 11.924C47.0807 11.924 47.9738 11.0416 47.9738 9.95303C47.9738 8.86449 47.0807 7.98206 45.979 7.98206C44.8773 7.98206 43.9843 8.86449 43.9843 9.95303C43.9843 11.0416 44.8773 11.924 45.979 11.924Z" fill="#81B3D2"/></symbol><symbol viewBox="0 0 75 72" id="icon-house"><path d="M29.6185 64.9389H45.6827V41.1709H29.6185V64.9389ZM42.7711 62.0549H32.5301V44.0549H42.6707V62.0549H42.7711Z" fill="#81B3D2"/><path d="M72.8916 39.1823L75 37.0939L65.0602 27.2486V0.39779H51.2048V13.5249L37.4498 0L0 37.1934L2.10843 39.2818L9.93976 31.5249V69.116H6.0241V72H70.1807V69.116H65.0602V31.4254L72.8916 39.1823ZM54.1165 3.38122H62.0482V24.3646L54.1165 16.5083V3.38122ZM62.1486 69.0166H12.9518V28.5414L37.4498 4.1768L62.0482 28.5414V69.0166H62.1486Z" fill="#81B3D2"/><path d="M29.9197 27.0491C29.9197 31.3253 33.4338 34.806 37.6507 34.806C41.9679 34.806 45.482 31.3253 45.482 27.0491C45.482 22.7728 41.9679 19.3916 37.6507 19.3916C33.3334 19.3916 29.9197 22.7728 29.9197 27.0491ZM37.6507 22.0767C40.3615 22.0767 42.6707 24.2645 42.6707 27.0491C42.6707 29.7341 40.4619 32.0214 37.6507 32.0214C34.9398 32.0214 32.6306 29.8336 32.6306 27.0491C32.6306 24.364 34.9398 22.0767 37.6507 22.0767Z" fill="#81B3D2"/><path d="M19.9799 41.1709H16.9679V45.0493H19.9799V41.1709Z" fill="#81B3D2"/><path d="M25.9036 41.1709H22.8915V45.0493H25.9036V41.1709Z" fill="#81B3D2"/><path d="M19.9799 47.1387H16.9679V51.0171H19.9799V47.1387Z" fill="#81B3D2"/><path d="M25.9036 47.1387H22.8915V51.0171H25.9036V47.1387Z" fill="#81B3D2"/><path d="M52.008 41.1709H48.996V45.0493H52.008V41.1709Z" fill="#81B3D2"/><path d="M58.0321 41.1709H55.0201V45.0493H58.0321V41.1709Z" fill="#81B3D2"/><path d="M52.008 47.1387H48.996V51.0171H52.008V47.1387Z" fill="#81B3D2"/><path d="M58.0321 47.1387H55.0201V51.0171H58.0321V47.1387Z" fill="#81B3D2"/></symbol></svg>

<svg xmlns="http://www.w3.org/2000/svg"><symbol viewBox="0 0 64 75" id="icon-gift"><path d="M61.156 22.117H36.368C50.184 15.319 51.302 11.02 50.794 8.62c-1.118-3.899-5.69-6.898-9.956-5.298-5.587 2.099-7.111 10.296-8.635 16.194-1.93-5.998-3.759-13.595-8.127-17.494-1.219-1.1-3.047-2.2-5.79-2-4.064.4-9.854 5.299-7.416 10.797 2.235 5.299 9.65 8.697 14.628 11.397H2.844A2.817 2.817 0 000 25.016v11.196c0 1.6 1.32 2.8 2.844 2.8h.305V75h57.905V39.011h.102c1.625 0 2.844-1.3 2.844-2.799V25.016c0-1.6-1.32-2.9-2.844-2.9zM42.464 5.822c2.133-.3 4.977 1.3 5.282 3.199.406 2.699-3.352 5.198-5.08 6.298-2.539 1.7-4.977 2.599-7.314 3.999.813-3.7 2.54-12.896 7.112-13.496zm-22.96 9.797c-2.234-1.5-6.5-4.399-6.4-7.698.102-3.599 5.791-6.498 8.839-3.799 3.86 3.3 5.689 10.997 7.111 16.395-3.25-1.6-6.298-2.799-9.55-4.898zM25.499 72H6.095V39.01h19.403V72zm0-35.989H3.048V25.116h22.45v10.896zM35.659 72h-7.214V25.116h7.213V72zm22.348 0H38.705V39.01h19.403V72h-.102zm2.946-35.989H38.705V25.116h22.247v10.896z" fill="#81B3D2"/></symbol><symbol viewBox="0 0 76 68" id="icon-burger"><path d="M71.711 45.332H4.29C1.895 45.332 0 47.303 0 49.57v3.45c0 2.266 1.895 4.138 4.289 4.138h.997v.986c0 5.42 4.488 9.756 9.874 9.756h45.68c5.486 0 9.874-4.435 9.874-9.756v-.986h.997c2.294 0 4.289-1.872 4.289-4.237v-3.45c0-2.168-1.895-4.139-4.289-4.139zm-3.89 12.812c0 3.745-3.091 6.8-6.881 6.8H15.06c-3.79 0-6.882-3.055-6.882-6.8v-.986h59.644v.986zm5.187-5.223c0 .69-.599 1.28-1.297 1.28H4.29c-.698 0-1.297-.59-1.297-1.28v-3.45c0-.59.599-1.182 1.297-1.182h67.52c.698 0 1.297.591 1.297 1.281v3.35h-.1zM16.157 37.35l5.386 3.941 5.486-3.941 5.485 3.941L38 37.35l5.386 3.941 5.485-3.941 5.486 3.941 5.486-3.941 5.485 3.941 6.284-4.631-1.696-2.365-4.588 3.252-5.485-3.942-5.486 3.942-5.486-3.942-5.485 3.942L38 33.605l-5.486 3.942-5.485-3.942-5.486 3.942-5.386-3.942-5.485 3.942-4.588-3.252-1.795 2.365 6.383 4.632 5.485-3.942zm54.557-6.701c0-.592.1-2.563 0-2.957C70.016 12.32 55.654 0 38 0 20.346 0 5.884 12.319 5.186 27.692v2.957h65.528zM38 2.956c15.958 0 29.123 11.038 29.722 24.736H8.178C8.877 13.994 22.042 2.956 38 2.956z" fill="#81B3D2"/><path d="M38 16.753a1.983 1.983 0 001.995-1.97A1.983 1.983 0 0038 12.81a1.983 1.983 0 00-1.995 1.971c0 1.089.893 1.971 1.995 1.971zm-7.979-4.829a1.983 1.983 0 001.995-1.971 1.983 1.983 0 00-1.995-1.97 1.983 1.983 0 00-1.995 1.97c0 1.089.893 1.971 1.995 1.971zm15.958 0a1.983 1.983 0 001.995-1.971 1.983 1.983 0 00-1.995-1.97 1.983 1.983 0 00-1.995 1.97c0 1.089.893 1.971 1.995 1.971z" fill="#81B3D2"/></symbol><symbol viewBox="0 0 75 72" id="icon-house"><path d="M29.619 64.939h16.064V41.17H29.619v23.768zm13.152-2.884h-10.24v-18h10.14v18h.1z" fill="#81B3D2"/><path d="M72.892 39.182L75 37.094l-9.94-9.845V.398H51.205v13.127L37.45 0 0 37.193l2.108 2.089 7.832-7.757v37.591H6.024V72h64.157v-2.884h-5.12v-37.69l7.83 7.756zm-18.775-35.8h7.931v20.983l-7.931-7.857V3.381zm8.032 65.635H12.952V28.54L37.45 4.177 62.048 28.54v40.476h.1z" fill="#81B3D2"/><path d="M29.92 27.05c0 4.275 3.514 7.756 7.73 7.756 4.318 0 7.832-3.48 7.832-7.757 0-4.276-3.514-7.657-7.831-7.657-4.318 0-7.731 3.38-7.731 7.657zm7.73-4.973c2.712 0 5.02 2.188 5.02 4.972 0 2.685-2.208 4.972-5.02 4.972-2.71 0-5.02-2.187-5.02-4.972 0-2.685 2.31-4.972 5.02-4.972zM19.98 41.17h-3.012v3.88h3.012v-3.88zm5.924 0h-3.012v3.88h3.012v-3.88zm-5.924 5.969h-3.012v3.878h3.012V47.14zm5.924 0h-3.012v3.878h3.012V47.14zm26.104-5.969h-3.012v3.88h3.012v-3.88zm6.024 0H55.02v3.88h3.012v-3.88zm-6.024 5.969h-3.012v3.878h3.012V47.14zm6.024 0H55.02v3.878h3.012V47.14z" fill="#81B3D2"/></symbol></svg>
